packages/core/src/svgs/tokens/mono/ZKB.svg

<svg width="24" height="24" viewBox="0 0 24 24" fill="none" xmlns="http://www.w3.org/2000/svg">
<path d="M13.165 12.6259L12.29 11.7321C12.276 11.7144 12.2693 11.6921 12.2713 11.6697C12.2707 11.658 12.2726 11.6465 12.277 11.6357C12.2812 11.6249 12.2879 11.6151 12.2963 11.6071L13.1712 10.751H14.8211C14.8837 10.751 14.8962 10.7321 14.8525 10.6884C12.3463 8.21349 9.82133 6.05106 7.29015 3.53237C6.85266 3.09488 7.04015 2.3949 7.54015 2.1199C7.97763 1.86991 8.40262 2.03866 8.73386 2.3699C11.7338 5.33858 14.7525 7.99475 17.7899 10.9946C18.2149 11.4258 18.1774 12.1821 17.6273 12.4634C17.4837 12.5384 17.2273 12.6259 16.8712 12.6259H13.165Z" fill="white"/>
<path d="M9.5337 2.64472C9.70869 1.68851 11.4025 1.79476 11.3774 2.98222V4.40093L11.3648 4.42593C11.3605 4.43129 11.3545 4.43532 11.3479 4.43752C11.3414 4.43972 11.3342 4.44004 11.3274 4.43843L11.3024 4.43218C10.7837 3.91344 10.2462 3.40095 9.70869 2.88848C9.63995 2.82597 9.5837 2.75723 9.5337 2.68223C9.5337 2.68223 9.5212 2.68847 9.5337 2.64472ZM14.2523 7.05086C14.2444 7.04383 14.238 7.03517 14.2336 7.02547C14.2292 7.01577 14.2269 7.00526 14.2269 6.99461C14.2269 6.98397 14.2292 6.97345 14.2336 6.96375C14.238 6.95406 14.2444 6.94539 14.2523 6.93836L19.1272 2.31974C19.3112 2.13801 19.5562 2.0311 19.8146 2.01974C19.9396 2.01974 20.0647 2.0385 20.1772 2.08224C20.2896 2.12599 20.3959 2.19474 20.4834 2.27599L20.4897 2.28849C20.5759 2.3739 20.6431 2.47644 20.6873 2.58947C20.7315 2.70249 20.7515 2.82351 20.7459 2.94472C20.7399 3.20254 20.632 3.44749 20.4459 3.62595L15.571 8.24457C15.5558 8.2591 15.5357 8.26719 15.5149 8.26719C15.4939 8.26719 15.4737 8.2591 15.4586 8.24457L14.2523 7.05086ZM12.8148 10.6507L11.8337 11.6383C11.8252 11.6463 11.8187 11.6559 11.8143 11.6667C11.8101 11.6775 11.8082 11.6892 11.8086 11.7007C11.8082 11.7124 11.8101 11.7239 11.8143 11.7347C11.8187 11.7455 11.8252 11.7553 11.8337 11.7633L12.7211 12.6194C15.2836 15.1194 17.8335 17.9005 20.3708 20.3567C21.3146 21.2692 20.0085 22.6067 19.0646 21.688C16.5398 19.2318 13.9898 16.4444 11.4149 13.9382L11.4025 13.9256C11.3711 13.9256 11.3774 13.9382 11.3774 13.957V17.1693C11.3774 17.2443 11.3336 17.2568 11.2774 17.2005L9.65245 15.6256C9.60499 15.5831 9.56709 15.5312 9.54124 15.473C9.51537 15.4148 9.50215 15.3518 9.50245 15.2881V6.15089C9.50245 6.10088 9.5212 6.09464 9.55245 6.12589L11.3087 7.83834C11.3274 7.85083 11.3399 7.86959 11.3462 7.89458C11.3587 7.91334 11.3774 7.93833 11.3774 7.95709V9.36949C11.3774 9.45698 11.3962 9.46953 11.4586 9.40711L12.2212 8.63207C12.2327 8.62029 12.2484 8.61355 12.2649 8.61332C12.2814 8.61355 12.2971 8.62029 12.3087 8.63207L13.5462 9.83206C13.5774 9.86954 13.5774 9.90074 13.5462 9.93822L12.8211 10.6507H12.8148Z" fill="white"/>
<path d="M9.17106 10.7507V12.6256H6.48363C6.43988 12.6256 6.43364 12.6382 6.46489 12.6631C8.93357 15.113 11.4273 17.8692 13.9459 20.3504C14.146 20.5504 14.2584 20.7692 14.2898 21.0066C14.3396 21.4566 14.0022 21.8754 13.5647 21.9753C13.4022 22.0134 13.2326 22.0073 13.0734 21.9578C12.9141 21.9084 12.7708 21.8174 12.6585 21.6942C9.60855 18.6692 6.56489 15.363 3.52747 12.3631C3.43702 12.2742 3.366 12.1673 3.31887 12.0495C3.27175 11.9318 3.24954 11.8053 3.25366 11.6786C3.25775 11.5517 3.2881 11.4272 3.34276 11.3126C3.39742 11.1981 3.4752 11.0962 3.57121 11.0132C3.7842 10.8344 4.05584 10.7409 4.3337 10.7507H9.17106Z" fill="white"/>
<path d="M9.50244 19.1505L9.5087 19.1255C9.5087 19.1193 9.5087 19.1131 9.5212 19.1068C9.52808 19.1007 9.53697 19.0972 9.54619 19.0972C9.55542 19.0972 9.56432 19.1007 9.5712 19.1068C10.1587 19.6881 10.7274 20.2443 11.2836 20.7755C11.3774 20.863 11.4025 21.2193 11.3587 21.338C11.3093 21.4872 11.224 21.6218 11.1102 21.7301C10.9965 21.8385 10.8578 21.9172 10.7064 21.9592C10.5551 22.0012 10.3957 22.0053 10.2424 21.971C10.0891 21.9368 9.94657 21.8653 9.82744 21.7629C9.62119 21.6005 9.51495 21.3943 9.51495 21.1504L9.50244 19.1505Z" fill="white"/>
</svg>

<svg xmlns="http://www.w3.org/2000/svg" width="24" height="24" fill="none" viewBox="0 0 24 24">
    <path fill="#fff" d="m13.165 12.626-.875-.894a.1.1 0 0 1-.019-.062q0-.018.006-.034a.1.1 0 0 1 .02-.029l.874-.856h1.65q.096.002.031-.063c-2.506-2.475-5.03-4.637-7.562-7.156-.437-.437-.25-1.137.25-1.412.438-.25.863-.081 1.194.25 3 2.969 6.018 5.625 9.056 8.625.425.43.387 1.187-.163 1.468-.143.075-.4.163-.756.163z"/>
    <path fill="#fff" d="M9.534 2.645c.175-.956 1.868-.85 1.843.337v1.419l-.012.025a.04.04 0 0 1-.037.013l-.026-.007A93 93 0 0 0 9.71 2.888a1 1 0 0 1-.175-.206s-.013.006 0-.037m4.718 4.406a.08.08 0 0 1-.025-.056.08.08 0 0 1 .025-.057l4.875-4.618c.184-.182.43-.289.688-.3.125 0 .25.018.362.062a1 1 0 0 1 .306.194l.007.012a.87.87 0 0 1 .256.657.98.98 0 0 1-.3.681L15.57 8.245a.08.08 0 0 1-.112 0zm-1.437 3.6-.981.987a.08.08 0 0 0-.025.063q0 .017.005.034.007.015.02.028l.887.856c2.563 2.5 5.113 5.282 7.65 7.738.944.912-.362 2.25-1.306 1.331-2.525-2.456-5.075-5.244-7.65-7.75l-.012-.012c-.032 0-.026.012-.026.031v3.212c0 .075-.043.088-.1.032l-1.625-1.575a.45.45 0 0 1-.15-.338V6.151c0-.05.02-.056.05-.025l1.757 1.712a.1.1 0 0 1 .037.057c.013.018.031.043.031.062V9.37c0 .088.02.1.082.038l.762-.775a.06.06 0 0 1 .044-.019q.025 0 .044.02l1.237 1.2c.031.037.031.068 0 .105l-.725.713z"/>
    <path fill="#fff" d="M9.171 10.75v1.876H6.484q-.066 0-.02.037c2.47 2.45 4.963 5.206 7.482 7.687q.298.3.344.657c.05.45-.288.868-.725.968a.94.94 0 0 1-.906-.28c-3.05-3.026-6.094-6.332-9.132-9.332a.92.92 0 0 1 .044-1.35c.213-.179.485-.272.763-.262zm.331 8.4.007-.024c0-.007 0-.013.012-.02a.04.04 0 0 1 .025-.009q.015 0 .025.01c.588.581 1.156 1.137 1.713 1.669.093.087.118.443.075.562a.956.956 0 0 1-1.532.425.76.76 0 0 1-.312-.613z"/>
</svg>
